dice-2.svg

<svg fill="currentColor" viewBox="0 0 24 24"><path d="M5 3h14a2 2 0 0 1 2 2v14a2 2 0 0 1-2 2H5a2 2 0 0 1-2-2V5a2 2 0 0 1 2-2m2 2a2 2 0 0 0-2 2 2 2 0 0 0 2 2 2 2 0 0 0 2-2 2 2 0 0 0-2-2m10 10a2 2 0 0 0-2 2 2 2 0 0 0 2 2 2 2 0 0 0 2-2 2 2 0 0 0-2-2"/></svg>

<svg  viewBox="0 0 24 24" fill="currentColor"><path  d="M5,3H19A2,2 0 0,1 21,5V19A2,2 0 0,1 19,21H5A2,2 0 0,1 3,19V5A2,2 0 0,1 5,3M7,5A2,2 0 0,0 5,7A2,2 0 0,0 7,9A2,2 0 0,0 9,7A2,2 0 0,0 7,5M17,15A2,2 0 0,0 15,17A2,2 0 0,0 17,19A2,2 0 0,0 19,17A2,2 0 0,0 17,15Z"/></svg>
